build/img/paying/paying__advice-3.svg

<svg width="70" height="93" viewBox="0 0 70 93" fill="none" xmlns="http://www.w3.org/2000/svg">
<g id="Frame 47">
<g id="Group 8">
<g id="Union">
<mask id="path-1-inside-1_375_534" fill="white">
<path fill-rule="evenodd" clip-rule="evenodd" d="M4.5 0C2.29086 0 0.5 1.79086 0.5 4V72.772C0.5 74.9811 2.29086 76.772 4.5 76.772H65.5C67.7091 76.772 69.5 74.9811 69.5 72.772V4C69.5 1.79086 67.7091 0 65.5 0H4.5ZM56.1797 92.6951L56.1797 76.772H37.465L56.1797 92.6951Z"/>
</mask>
<path d="M56.1797 76.772L59.1797 76.772L59.1797 73.772H56.1797V76.772ZM56.1797 92.6951L54.2357 94.9799L59.1797 99.1865L59.1797 92.6951L56.1797 92.6951ZM37.465 76.772V73.772H29.3095L35.5209 79.0569L37.465 76.772ZM3.5 4C3.5 3.44772 3.94771 3 4.5 3V-3C0.634008 -3 -2.5 0.134004 -2.5 4H3.5ZM3.5 72.772V4H-2.5V72.772H3.5ZM4.5 73.772C3.94772 73.772 3.5 73.3243 3.5 72.772H-2.5C-2.5 76.638 0.634004 79.772 4.5 79.772V73.772ZM65.5 73.772H4.5V79.772H65.5V73.772ZM66.5 72.772C66.5 73.3243 66.0523 73.772 65.5 73.772V79.772C69.366 79.772 72.5 76.638 72.5 72.772H66.5ZM66.5 4V72.772H72.5V4H66.5ZM65.5 3C66.0523 3 66.5 3.44772 66.5 4H72.5C72.5 0.134006 69.366 -3 65.5 -3V3ZM4.5 3H65.5V-3H4.5V3ZM53.1797 76.772L53.1797 92.6951L59.1797 92.6951L59.1797 76.772L53.1797 76.772ZM37.465 79.772H56.1797V73.772H37.465V79.772ZM58.1238 90.4102L39.409 74.4871L35.5209 79.0569L54.2357 94.9799L58.1238 90.4102Z" fill="#202020" mask="url(#path-1-inside-1_375_534)"/>
</g>
<path id="?" d="M23.5015 28.4742C23.3869 19.8396 29.9164 17 35.6726 17C41.8011 17 47.5 20.2742 47.5 27.1124C47.5 31.9802 44.6362 34.3562 41.9156 36.5004C38.6223 39.0792 37.3908 40.0643 37.3908 43.3675V45.0481H31.921L31.8924 42.788C31.7778 38.5866 34.3266 36.0657 37.2477 33.8057C39.911 31.7194 41.6006 30.3866 41.6006 27.4311C41.6006 23.4615 38.6223 21.8678 35.3862 21.8678C31.0905 21.8678 28.9713 24.7364 28.9427 28.4742H23.5015ZM31.1478 54.465C31.1478 52.4367 32.7801 50.93 34.7848 50.93C36.7894 50.93 38.4218 52.4367 38.4218 54.465C38.4218 56.4933 36.7894 58 34.7848 58C32.7801 58 31.1478 56.4933 31.1478 54.465Z" fill="#FF4505"/>
</g>
</g>
</svg>

<svg width="70" height="93" fill="none" xmlns="http://www.w3.org/2000/svg"><g id="Frame 47"><g id="Group 8"><g id="Union"><mask id="path-1-inside-1_375_534" fill="#fff"><path fill-rule="evenodd" clip-rule="evenodd" d="M4.5 0a4 4 0 00-4 4v68.772a4 4 0 004 4h61a4 4 0 004-4V4a4 4 0 00-4-4h-61zm51.68 92.695V76.772H37.465L56.18 92.695z"/></mask><path d="M56.18 76.772h3v-3h-3v3zm0 15.923l-1.944 2.285 4.944 4.206v-6.49h-3zM37.465 76.772v-3h-8.156l6.212 5.285 1.944-2.285zM3.5 4a1 1 0 011-1v-6a7 7 0 00-7 7h6zm0 68.772V4h-6v68.772h6zm1 1a1 1 0 01-1-1h-6a7 7 0 007 7v-6zm61 0h-61v6h61v-6zm1-1a1 1 0 01-1 1v6a7 7 0 007-7h-6zM66.5 4v68.772h6V4h-6zm-1-1a1 1 0 011 1h6a7 7 0 00-7-7v6zm-61 0h61v-6h-61v6zm48.68 73.772v15.923h6V76.772h-6zm-15.715 3H56.18v-6H37.465v6zM58.124 90.41L39.409 74.487l-3.888 4.57L54.236 94.98l3.888-4.57z" fill="#202020" mask="url(#path-1-inside-1_375_534)"/></g><path id="?" d="M23.502 28.474C23.387 19.84 29.916 17 35.672 17c6.13 0 11.828 3.274 11.828 10.112 0 4.868-2.864 7.244-5.584 9.388-3.294 2.58-4.525 3.564-4.525 6.867v1.681h-5.47l-.029-2.26c-.114-4.201 2.435-6.722 5.356-8.982 2.663-2.087 4.353-3.42 4.353-6.375 0-3.97-2.979-5.563-6.215-5.563-4.296 0-6.415 2.868-6.443 6.606H23.5zm7.646 25.991c0-2.028 1.632-3.535 3.637-3.535 2.004 0 3.637 1.507 3.637 3.535 0 2.028-1.633 3.535-3.637 3.535-2.005 0-3.637-1.507-3.637-3.535z" fill="#FF4505"/></g></g></svg>
